symbols/web/bento/materialsymbolsoutlined/bento_wght200grad200_20px.svg

<svg xmlns="http://www.w3.org/2000/svg" height="20" width="20"><path d="M4.104 15.375q-.833 0-1.406-.573t-.573-1.406V6.604q0-.833.573-1.406t1.406-.573h11.792q.833 0 1.406.573t.573 1.406v6.792q0 .833-.573 1.406t-1.406.573Zm7.292-6.104h5.021V6.604q0-.187-.167-.354-.167-.167-.354-.167h-4.5Zm-7.292 4.646h5.834V6.083H4.104q-.187 0-.354.167-.167.167-.167.354v6.792q0 .187.167.354.167.167.354.167Zm2.563-2.729q-.5 0-.844-.355-.344-.354-.344-.833 0-.5.354-.844.355-.344.834-.344.5 0 .843.355.344.354.344.833 0 .5-.354.844t-.833.344Zm4.729 2.729h4.5q.187 0 .354-.167.167-.167.167-.354v-2.667h-5.021Z"/></svg>

<svg xmlns="http://www.w3.org/2000/svg" height="20" width="20"><path d="M4.104 15.375Q3.271 15.375 2.698 14.802Q2.125 14.229 2.125 13.396V6.604Q2.125 5.771 2.698 5.198Q3.271 4.625 4.104 4.625H15.896Q16.729 4.625 17.302 5.198Q17.875 5.771 17.875 6.604V13.396Q17.875 14.229 17.302 14.802Q16.729 15.375 15.896 15.375ZM11.396 9.271H16.417V6.604Q16.417 6.417 16.25 6.25Q16.083 6.083 15.896 6.083H11.396ZM4.104 13.917H9.938V6.083H4.104Q3.917 6.083 3.75 6.25Q3.583 6.417 3.583 6.604V13.396Q3.583 13.583 3.75 13.75Q3.917 13.917 4.104 13.917ZM6.667 11.188Q6.167 11.188 5.823 10.833Q5.479 10.479 5.479 10Q5.479 9.5 5.833 9.156Q6.188 8.812 6.667 8.812Q7.167 8.812 7.51 9.167Q7.854 9.521 7.854 10Q7.854 10.5 7.5 10.844Q7.146 11.188 6.667 11.188ZM11.396 13.917H15.896Q16.083 13.917 16.25 13.75Q16.417 13.583 16.417 13.396V10.729H11.396Z"/></svg>
